icons/code-square-vertical.svg

<svg xmlns="http://www.w3.org/2000/svg" viewBox="0 0 24 24" fill="currentColor">
  <path d="M7 3.75C5.11421 3.75 3.75 5.11421 3.75 7v10c0 1.7858 1.46421 3.25 3.25 3.25h10c1.7858 0 3.25-1.4642 3.25-3.25V7c0-1.78579-1.4642-3.25-3.25-3.25H7ZM2.25 7c0-2.71421 2.03579-4.75 4.75-4.75h10c2.6142 0 4.75 2.13579 4.75 4.75v10c0 2.6142-2.1358 4.75-4.75 4.75H7c-2.61421 0-4.75-2.1358-4.75-4.75V7Zm7.31964 6.2697c.2929-.2929.76776-.2929 1.06066 0L12 14.6394l1.3696-1.3697c.2929-.2929.7678-.2929 1.0607 0 .2929.2929.2929.7678 0 1.0607l-1.4 1.4c-.2705.2705-.6296.4446-1.0303.4446-.4007 0-.7598-.1741-1.0304-.4446l-1.39995-1.4c-.2929-.2929-.2929-.7678-.00001-1.0607Zm.96066-2.6393L11.9 9.26076l1.3697 1.36964c.2929.2929.7677.2929 1.0606 0 .2929-.2929.2929-.76775 0-1.06064l-1.4-1.39999c-.2705-.27052-.6296-.44467-1.0303-.44467-.4007 0-.7598.17415-1.0303.44467L9.46967 9.56976c-.29289.29289-.29289.76774 0 1.06064.29289.2929.76773.2929 1.06063 0Z"/>
</svg>

<svg width="24" height="24" viewBox="0 0 24 24" fill="none" xmlns="http://www.w3.org/2000/svg">
<path fill-rule="evenodd" clip-rule="evenodd" d="M7 3.75C5.11421 3.75 3.75 5.11421 3.75 7V17C3.75 18.7858 5.21421 20.25 7 20.25H17C18.7858 20.25 20.25 18.7858 20.25 17V7C20.25 5.21421 18.7858 3.75 17 3.75H7ZM2.25 7C2.25 4.28579 4.28579 2.25 7 2.25H17C19.6142 2.25 21.75 4.38579 21.75 7V17C21.75 19.6142 19.6142 21.75 17 21.75H7C4.38579 21.75 2.25 19.6142 2.25 17V7ZM9.56964 13.2697C9.86254 12.9768 10.3374 12.9768 10.6303 13.2697L12 14.6394L13.3696 13.2697C13.6625 12.9768 14.1374 12.9768 14.4303 13.2697C14.7232 13.5626 14.7232 14.0375 14.4303 14.3304L13.0303 15.7304C12.7598 16.0009 12.4007 16.175 12 16.175C11.5993 16.175 11.2402 16.0009 10.9696 15.7304L9.56965 14.3304C9.27675 14.0375 9.27675 13.5626 9.56964 13.2697ZM10.5303 10.6304L11.9 9.26076L13.2697 10.6304C13.5626 10.9233 14.0374 10.9233 14.3303 10.6304C14.6232 10.3375 14.6232 9.86265 14.3303 9.56976L12.9303 8.16977C12.6598 7.89925 12.3007 7.7251 11.9 7.7251C11.4993 7.7251 11.1402 7.89925 10.8697 8.16977L9.46967 9.56976C9.17678 9.86265 9.17678 10.3375 9.46967 10.6304C9.76256 10.9233 10.2374 10.9233 10.5303 10.6304Z" fill="black"/>
</svg>
